packages/smooth_app/assets/preferences/faq.svg

<svg width="223" height="226" viewBox="0 0 223 226" fill="none" xmlns="http://www.w3.org/2000/svg">
    <path d="M193.993 87.2834C171.198 78.7935 145.834 90.3855 137.342 113.179C128.851 135.97 140.445 161.33 163.243 169.819C173.602 173.679 184.492 173.386 194.088 169.784L208.482 177.21C211.538 178.787 215.083 176.191 214.5 172.801L211.86 157.457C215.24 153.574 217.991 149.031 219.894 143.924C228.385 121.132 216.791 95.7732 193.993 87.2834Z" fill="#5CDCFF"/>
    <path d="M78.8601 119.455C72.4312 98.3387 50.1007 86.4308 28.98 92.8585C7.8618 99.2837 -4.04831 121.613 2.37806 142.729C3.85751 147.593 6.18457 151.967 9.14348 155.742L6.27447 172.408C5.80187 175.161 8.67858 177.269 11.1623 175.988L25.664 168.507L25.0425 167.899C33.3695 171.427 42.932 172.167 52.2582 169.326C73.379 162.899 85.2891 140.572 78.8601 119.455Z" fill="#F4BDFF"/>
    <path d="M173.356 133.736L183.887 103.958L192.499 107.191L180.82 136.538L173.356 133.736ZM167.823 146.723L171.057 138.112L179.669 141.345L176.435 149.956L167.823 146.723Z" fill="black"/>
    <path d="M38.4141 138.431L38.0391 137.2C37.5614 135.631 37.3636 134.183 37.4458 132.853C37.528 131.523 37.7848 130.287 38.2163 129.142C38.6478 127.999 39.123 126.939 39.6444 125.963C40.3636 124.615 41.0057 123.397 41.5708 122.309C42.1359 121.222 42.2514 120.126 41.915 119.019C41.6864 118.272 41.3062 117.655 40.7694 117.178C40.2326 116.697 39.5674 116.394 38.7686 116.269C37.9698 116.143 37.0528 116.235 36.0203 116.551C34.7001 116.952 33.6727 117.704 32.9381 118.803C32.2009 119.905 31.9338 121.163 32.1316 122.583L24.1281 122.974C23.8405 120.881 24.0485 118.908 24.7523 117.057C25.4535 115.208 26.5939 113.575 28.1709 112.16C29.7454 110.745 31.6744 109.692 33.9578 108.996C36.7394 108.148 39.2489 107.982 41.486 108.487C43.7232 108.996 45.5828 109.949 47.0597 111.348C48.5391 112.748 49.5639 114.394 50.1393 116.281C50.5528 117.637 50.6581 118.919 50.4629 120.126C50.2651 121.335 49.9081 122.496 49.3893 123.608C48.8704 124.72 48.3079 125.816 47.7018 126.898C46.9107 128.269 46.2609 129.653 45.7523 131.055C45.2437 132.457 45.2232 133.924 45.6907 135.457L45.9013 136.153L38.4141 138.431ZM41.9432 150.793L39.5006 142.773L47.522 140.331L49.9646 148.351L41.9432 150.793Z" fill="black"/>
    <path d="M111.771 226C141.272 226 165.188 202.089 165.188 172.593C165.188 143.097 141.272 119.186 111.771 119.186C82.2696 119.186 58.354 143.097 58.354 172.593C58.354 202.089 82.2696 226 111.771 226Z" fill="#FFC88C"/>
    <path d="M111.771 199.313C101.412 199.313 91.0537 195.371 83.1658 187.485C82.349 186.668 82.349 185.343 83.1658 184.526C83.9826 183.71 85.3079 183.71 86.1247 184.526C100.267 198.666 123.275 198.666 137.418 184.526C138.234 183.71 139.56 183.71 140.376 184.526C141.193 185.343 141.193 186.668 140.376 187.485C132.491 195.369 122.13 199.313 111.771 199.313Z" fill="black"/>
    <path d="M123.958 161.653C128.916 170.729 140.333 174.08 149.41 169.124C158.487 164.167 161.839 152.752 156.881 143.677C151.924 134.602 140.507 131.25 131.43 136.207C122.353 141.163 119.001 152.578 123.958 161.653Z" fill="white"/>
    <path d="M128.767 160.223C131.094 164.483 136.452 166.055 140.711 163.728C144.972 161.402 146.544 156.045 144.217 151.787C141.89 147.527 136.532 145.955 132.273 148.282C128.012 150.608 126.44 155.965 128.767 160.223Z" fill="black"/>
    <path d="M138.892 153.068C139.794 154.72 141.874 155.331 143.526 154.429C145.177 153.528 145.788 151.448 144.887 149.797C143.985 148.145 141.905 147.534 140.253 148.436C138.602 149.337 137.99 151.415 138.892 153.068Z" fill="white"/>
    <path d="M99.5865 161.653C94.6293 170.729 83.2123 174.08 74.1353 169.124C65.0582 164.167 61.7063 152.752 66.6635 143.677C71.6207 134.602 83.0377 131.25 92.1147 136.207C101.192 141.163 104.544 152.578 99.5865 161.653Z" fill="white"/>
    <path d="M94.7782 160.223C92.4512 164.483 87.0933 166.055 82.8347 163.728C78.5736 161.402 77.0017 156.045 79.3287 151.787C81.6558 147.527 87.0137 145.955 91.2722 148.282C95.5333 150.608 97.1053 155.965 94.7782 160.223Z" fill="black"/>
    <path d="M95.4767 152.996C94.5752 154.648 92.4947 155.259 90.8431 154.357C89.1916 153.456 88.5803 151.376 89.4818 149.725C90.3834 148.073 92.4639 147.462 94.1154 148.364C95.7669 149.265 96.3782 151.343 95.4767 152.996Z" fill="white"/>
    <path d="M83.1245 176.039C70.2333 176.039 59.7461 165.554 59.7461 152.665C59.7461 139.776 70.2333 129.291 83.1245 129.291C96.0158 129.291 106.503 139.776 106.503 152.665C106.503 165.554 96.0158 176.039 83.1245 176.039ZM83.1245 135.331C73.5646 135.331 65.7872 143.107 65.7872 152.665C65.7872 162.223 73.5646 169.999 83.1245 169.999C92.6845 169.999 100.462 162.223 100.462 152.665C100.462 143.107 92.6845 135.331 83.1245 135.331Z" fill="black"/>
    <path d="M140.42 176.039C127.529 176.039 117.042 165.554 117.042 152.665C117.042 139.776 127.529 129.291 140.42 129.291C153.312 129.291 163.799 139.776 163.799 152.665C163.799 165.554 153.312 176.039 140.42 176.039ZM140.42 135.331C130.86 135.331 123.083 143.107 123.083 152.665C123.083 162.223 130.86 169.999 140.42 169.999C149.98 169.999 157.758 162.223 157.758 152.665C157.758 143.107 149.98 135.331 140.42 135.331Z" fill="black"/>
    <path d="M117.404 154.66C114.299 151.556 109.247 151.556 106.142 154.66L102.027 150.547C104.631 147.943 108.094 146.507 111.772 146.507C115.45 146.507 118.912 147.94 121.517 150.547L117.402 154.66H117.404Z" fill="black"/>
    <path d="M125.004 108.675L99.3442 113.161L100.395 119.17C101.635 126.256 108.383 130.994 115.469 129.753C122.556 128.513 127.295 121.767 126.054 114.682L125.004 108.672V108.675Z" fill="#545454"/>
    <path d="M121.893 90.8976L96.2324 95.3844L100.263 118.429L125.924 113.942L121.893 90.8976Z" fill="#999999"/>
    <path d="M61.7958 71.4438C57.7196 48.1519 73.3027 25.9668 96.5989 21.8913C119.895 17.8159 142.084 33.3961 146.161 56.688L61.7958 71.4438Z" fill="#FFCD1E"/>
    <path d="M146.16 56.688C150.236 79.9799 134.653 102.165 111.357 106.24C88.0608 110.316 65.8716 94.7357 61.7954 71.4438L146.16 56.688Z" fill="#FFCD1E"/>
    <path d="M129.948 46.7343C129.257 46.855 128.525 46.5931 128.076 45.9948C121.228 36.886 110.006 32.4459 98.7896 34.4079C97.7417 34.5902 96.7425 33.8917 96.5602 32.8414C96.3778 31.791 97.0764 30.7947 98.127 30.6123C110.779 28.3987 123.437 33.4063 131.158 43.681C131.797 44.531 131.625 45.738 130.775 46.3774C130.523 46.5674 130.241 46.6856 129.951 46.7343H129.948Z" fill="white"/>
    <path d="M95.2629 14.2566C94.2149 14.4389 93.2158 13.7379 93.0334 12.6901L91.2843 2.68769C91.1019 1.63994 91.8006 0.640982 92.8511 0.458653C93.9016 0.276324 94.8982 0.977393 95.0805 2.02514L96.8297 12.0276C97.012 13.0753 96.3134 14.0743 95.2629 14.2566Z" fill="black"/>
    <path d="M133.89 22.9854C133.405 23.0701 132.886 22.97 132.452 22.6644C131.581 22.0532 131.37 20.8514 131.982 19.9808L137.817 11.6707C138.429 10.8001 139.631 10.5896 140.501 11.2008C141.372 11.8119 141.583 13.0138 140.971 13.8843L135.136 22.1944C134.83 22.6284 134.375 22.9006 133.89 22.9854Z" fill="black"/>
    <path d="M60.4287 35.8331C59.9433 35.9178 59.4245 35.8177 58.9904 35.5121L50.6787 29.6775C49.808 29.0663 49.5974 27.8645 50.2087 26.9939C50.82 26.1234 52.0221 25.9128 52.8928 26.524L61.2044 32.3585C62.0751 32.9697 62.2858 34.1716 61.6745 35.0421C61.3688 35.4761 60.9142 35.7483 60.4287 35.8331Z" fill="black"/>
    <path d="M105.355 71.9317L86.1426 58.4419C85.2719 57.8307 85.0613 56.6289 85.6726 55.7584C86.2839 54.8878 87.4859 54.6772 88.3566 55.2884L104.415 66.5646L115.693 50.5093C116.304 49.6388 117.506 49.4282 118.377 50.0394C119.248 50.6506 119.459 51.8524 118.847 52.723L105.355 71.9317Z" fill="black"/>
    <path d="M106.78 68.9217L102.984 69.5853L107.956 98.0057L111.751 97.3421L106.78 68.9217Z" fill="black"/>
    <path d="M111.358 106.24C128.749 103.2 141.838 90.0645 145.662 73.9091L68.1118 87.4734C77.194 101.369 93.9663 109.284 111.358 106.24Z" fill="#999999"/>
</svg>

<svg width="223" height="226" fill="none" xmlns="http://www.w3.org/2000/svg"><path d="M193.993 87.283c-22.795-8.49-48.159 3.102-56.651 25.896-8.491 22.791 3.103 48.151 25.901 56.64 10.359 3.86 21.249 3.567 30.845-.035l14.394 7.426c3.056 1.577 6.601-1.019 6.018-4.409l-2.64-15.344a43.918 43.918 0 0 0 8.034-13.533c8.491-22.792-3.103-48.15-25.901-56.64Z" fill="#5CDCFF"/><path d="M78.86 119.455C72.431 98.339 50.1 86.431 28.98 92.859c-21.118 6.425-33.028 28.754-26.602 49.87a39.838 39.838 0 0 0 6.765 13.013l-2.869 16.666c-.472 2.753 2.405 4.861 4.888 3.58l14.502-7.481-.622-.608a39.798 39.798 0 0 0 27.216 1.427c21.121-6.427 33.031-28.754 26.602-49.871Z" fill="#F4BDFF"/><path d="m173.356 133.736 10.531-29.778 8.612 3.233-11.679 29.347-7.464-2.802Zm-5.533 12.987 3.234-8.611 8.612 3.233-3.234 8.611-8.612-3.233ZM38.414 138.431l-.375-1.231c-.478-1.569-.675-3.017-.593-4.347a12.68 12.68 0 0 1 .77-3.711 26.923 26.923 0 0 1 1.428-3.179c.72-1.348 1.362-2.566 1.927-3.654.565-1.087.68-2.183.344-3.29-.229-.747-.609-1.364-1.146-1.841-.536-.481-1.202-.784-2-.909-.8-.126-1.716-.034-2.749.282-1.32.401-2.347 1.153-3.082 2.252-.737 1.102-1.004 2.36-.806 3.78l-8.004.391c-.288-2.093-.08-4.066.624-5.917.701-1.849 1.842-3.482 3.419-4.897 1.574-1.415 3.503-2.468 5.787-3.164 2.781-.848 5.29-1.014 7.528-.509 2.237.509 4.097 1.462 5.574 2.861 1.48 1.4 2.504 3.046 3.08 4.933.413 1.356.518 2.638.323 3.845a13.26 13.26 0 0 1-1.074 3.482 49.943 49.943 0 0 1-1.687 3.29 26.174 26.174 0 0 0-1.95 4.157c-.508 1.402-.529 2.869-.061 4.402l.21.696-7.487 2.278Zm3.53 12.362-2.443-8.02 8.021-2.442 2.443 8.02-8.022 2.442Z" fill="#000"/><path d="M111.771 226c29.501 0 53.417-23.911 53.417-53.407 0-29.496-23.916-53.407-53.417-53.407s-53.417 23.911-53.417 53.407c0 29.496 23.916 53.407 53.417 53.407Z" fill="#FFC88C"/><path d="M111.771 199.313c-10.359 0-20.717-3.942-28.605-11.828a2.093 2.093 0 0 1 2.959-2.959c14.142 14.14 37.15 14.14 51.293 0a2.093 2.093 0 0 1 2.958 2.959c-7.885 7.884-18.246 11.828-28.605 11.828Z" fill="#000"/><path d="M123.958 161.653c4.958 9.076 16.375 12.427 25.452 7.471 9.077-4.957 12.429-16.372 7.471-25.447-4.957-9.075-16.374-12.427-25.451-7.47-9.077 4.956-12.429 16.371-7.472 25.446Z" fill="#fff"/><path d="M128.767 160.223c2.327 4.26 7.685 5.832 11.944 3.505 4.261-2.326 5.833-7.683 3.506-11.941-2.327-4.26-7.685-5.832-11.944-3.505-4.261 2.326-5.833 7.683-3.506 11.941Z" fill="#000"/><path d="M138.892 153.068a3.42 3.42 0 0 0 4.634 1.361 3.42 3.42 0 0 0 1.361-4.632 3.42 3.42 0 0 0-4.634-1.361 3.418 3.418 0 0 0-1.361 4.632ZM99.587 161.653c-4.958 9.076-16.375 12.427-25.452 7.471-9.077-4.957-12.429-16.372-7.472-25.447 4.958-9.075 16.375-12.427 25.452-7.47 9.077 4.956 12.429 16.371 7.472 25.446Z" fill="#fff"/><path d="M94.778 160.223c-2.327 4.26-7.685 5.832-11.943 3.505-4.261-2.326-5.833-7.683-3.506-11.941 2.327-4.26 7.685-5.832 11.943-3.505 4.261 2.326 5.833 7.683 3.506 11.941Z" fill="#000"/><path d="M95.477 152.996a3.42 3.42 0 0 1-4.634 1.361 3.419 3.419 0 0 1-1.361-4.632 3.42 3.42 0 0 1 4.633-1.361 3.418 3.418 0 0 1 1.362 4.632Z" fill="#fff"/><path d="M83.124 176.039c-12.89 0-23.378-10.485-23.378-23.374s10.487-23.374 23.378-23.374c12.892 0 23.379 10.485 23.379 23.374s-10.487 23.374-23.379 23.374Zm0-40.708c-9.56 0-17.337 7.776-17.337 17.334s7.778 17.334 17.337 17.334c9.56 0 17.338-7.776 17.338-17.334s-7.778-17.334-17.338-17.334ZM140.42 176.039c-12.891 0-23.378-10.485-23.378-23.374s10.487-23.374 23.378-23.374c12.892 0 23.379 10.485 23.379 23.374s-10.487 23.374-23.379 23.374Zm0-40.708c-9.56 0-17.337 7.776-17.337 17.334s7.777 17.334 17.337 17.334c9.56 0 17.338-7.776 17.338-17.334s-7.778-17.334-17.338-17.334Z" fill="#000"/><path d="M117.404 154.66c-3.105-3.104-8.157-3.104-11.262 0l-4.115-4.113a13.698 13.698 0 0 1 9.745-4.04c3.678 0 7.14 1.433 9.745 4.04l-4.115 4.113h.002Z" fill="#000"/><path d="m125.004 108.675-25.66 4.486 1.051 6.009c1.24 7.086 7.988 11.824 15.074 10.583 7.087-1.24 11.826-7.986 10.585-15.071l-1.05-6.01v.003Z" fill="#545454"/><path d="m121.893 90.898-25.66 4.486 4.03 23.045 25.661-4.487-4.031-23.044Z" fill="#999"/><path d="M61.796 71.444C57.72 48.152 73.303 25.967 96.599 21.89c23.296-4.075 45.485 11.505 49.562 34.797L61.796 71.444Z" fill="#FFCD1E"/><path d="M146.16 56.688c4.076 23.292-11.507 45.477-34.803 49.552-23.296 4.076-45.485-11.504-49.562-34.796l84.365-14.756Z" fill="#FFCD1E"/><path d="M129.948 46.734a1.924 1.924 0 0 1-1.872-.74c-6.848-9.108-18.07-13.548-29.286-11.586a1.925 1.925 0 0 1-2.23-1.567 1.924 1.924 0 0 1 1.567-2.229c12.652-2.213 25.31 2.794 33.031 13.069a1.926 1.926 0 0 1-1.207 3.053h-.003Z" fill="#fff"/><path d="M95.263 14.257a1.927 1.927 0 0 1-2.23-1.567L91.284 2.688a1.926 1.926 0 1 1 3.796-.663l1.75 10.003a1.925 1.925 0 0 1-1.567 2.229ZM133.89 22.985a1.926 1.926 0 0 1-1.908-3.005l5.835-8.31a1.927 1.927 0 0 1 3.154 2.214l-5.835 8.31a1.93 1.93 0 0 1-1.246.791ZM60.429 35.833a1.92 1.92 0 0 1-1.439-.32l-8.311-5.835a1.927 1.927 0 1 1 2.214-3.154l8.311 5.834a1.927 1.927 0 0 1-.775 3.475ZM105.355 71.932l-19.212-13.49a1.926 1.926 0 1 1 2.214-3.154l16.058 11.277 11.278-16.056a1.927 1.927 0 0 1 3.154 2.214l-13.492 19.209Z" fill="#000"/><path d="m106.78 68.922-3.796.663 4.972 28.42 3.795-.663-4.971-28.42Z" fill="#000"/><path d="M111.358 106.24c17.391-3.04 30.48-16.175 34.304-32.33l-77.55 13.563c9.082 13.896 25.854 21.811 43.246 18.767Z" fill="#999"/></svg>
